X:1
T:Title
%%score { ( 1 3 6 ) | ( 2 4 5 ) }
L:1/8
Q:1/4=100
M:4/4
K:Ab
V:1 treble nm="Grand Piano"
V:3 treble 
V:6 treble 
V:2 bass 
V:4 bass 
V:5 bass 
V:1
 [CE][CE][CA][DB] [Ec]2 [CE]2 | F4 A4 | GGGF E2 F2 | [CE]6 z2 | [CE][CE][CA][DB] [Ec]2 [CE]2 | %5
w: E.~L~Tussing * * * * *|||||
 F4 A4 | GGGF E2 B2 | [CA]6 (3EAc | e6 z2 | [EG]4 [Gd]4 | [Gd]6 z2 | [Ec]6 z2 | e6 z2 | %13
w: ||||||||
 [FB]4 [Fd]4 | %14
w: |
 cEF[EA] [=DA]2 G2[Q:1/4=97][Q:1/4=94][Q:1/4=91][Q:1/4=88][Q:1/4=84][Q:1/4=81][Q:1/4=78] | %15
w: |
 [CA]6 z2 |] %16
w: |
V:2
 [A,,A,][A,,A,][A,,E,][A,,E,] [A,,A,]2 [A,,A,]2 | [D,A,D]4 [D,F,D]4 | %2
 [E,D][E,D][E,B,D][E,A,D] [E,G,D]2 [E,G,D]2 | z2 A,4 z2 | %4
 [A,,A,][A,,A,][A,,E,][A,,E,] [A,,A,]2 [A,,A,]2 | [D,A,D]4 [D,F,D]4 | %6
 [E,D][E,D][E,B,D][E,A,D] [E,G,D]2 [E,D]2 | [A,,E,]6 z2 | A6[K:bass] z2 | E,E,E,E, [E,B,]2 z2 | %10
 [E,B,]E,E,E, z GEE | A,A,E,C, A,,2 z2 | _G-[A,G-][A,G-][A,G-] GE[K:bass] z C | %13
 D,D,D,D, [D,A,]2 D,2 | [E,A,E][C,A,][D,A,D][C,A,] [B,,F,]2 [E,D]2 | [A,,E,]6 z2 |] %16
V:3
 x8 | x8 | x8 | A,2 z2 z4 | x8 | x8 | x8 | x8 | z CCC C[Ac][DEB][EA] | B,B,B,B, z2 [E,B,]2 | %10
 z B,B,B, z Bed | z2 A,A, A,2 (3EAc | z CCC C[_Gc][DGB][GA] | DDDD z2 A,2 | x8 | x8 |] %16
V:4
 x8 | x8 | x8 | z4 E,2 C,2 | x8 | x8 | x8 | x8 | [A,C]A,A,A, z E[K:bass] z C | x8 | %10
 z4 E,2 [E,G,]2 | x8 | .[A,C]2 z2 A,2[K:bass] A,2 | x8 | x8 | x8 |] %16
V:5
 x8 | x8 | x8 | A,,6 z2 | x8 | x8 | x8 | x8 | z4 A,2[K:bass] A,2 | x8 | x8 | x8 | x6[K:bass] x2 | %13
 x8 | x8 | x8 |] %16
V:6
 x8 | x8 | x8 | x8 | x8 | x8 | x8 | x8 | x8 | x8 | z4 B,2 z2 | x8 | x8 | x8 | x8 | x8 |] %16

